!!!OTL: Weihnachtslied des 14. Jahrhunderts. / (Wechselgesangbeim Kindelwiegen.) / Uebertragung und Berichtigung:
!!!ARE: Europa, Mitteleuropa, Deutschland
!!!SCT: A0521A
!!!TXL: @@GMH
!!!YEM: Copyright 1995, estate of Helmut Schaffrath.
**kern	**text
*M6/4	*
*k[b-]	*
*F:	*
=1	=1
{2cc	Jo-
4a	-ſeph,
2f	lie-
4a	-ber
=2	=2
2cc	Nef-
4dd	-fe
2.cc}	mein,
=3||	=3||
{2cc	hilf
4a	mir
4f	wie-
4f	-gen
4a	mein
=4	=4
2cc	Kin-
4dd	-de-
2.cc}	-lein,
=5||	=5||
{2cc	daß
4b-	Gott
4a	müſ-
4a	-ſe
4cc	dein
=6	=6
2b-	Loh-
4a	-uer
2g}	ſein,
{4a	im
=7	=7
2cc	Him-
4a	-mel-
2f	-reich
4a	der
=8	=8
2g	Mai-
4d	-de
2g	Kind,
4a	Ma-
=9	=9
2.f	-ri-
2.f}	-a.
==	==
!!!GTL: Geistliche Volkslieder
!!!AGN: Romanze, Ballade, Lied, religioeses Lied
!! Hs. aus dem 14./15. Jh, von Boehme uebertragen ud berichtigt.
!!!ONB: ESAC (Essen Associative Code) Database: ALTDEU
!!!AMT: compound duple
!!!AIN: vox
!!!EED: Helmut Schaffrath
!!!EEV: 1.0
!!!RDF**kern: l = terminal long
!!!URL-scan: https://rosdok.uni-rostock.de/mcrviewer/recordIdentifier/rosdok_ppn738218359/iview2/phys_0697.iview2?x=-2231.2783251231526&y=-465.71724138082936&scale=0.2314709236031927&rotation=0&layout=singlePageLayout&logicalDiv=log_0018
!!!ENC: Anna Maria Matuszewska
!!!EEV: 2024/19/03
*-	*-
